web/ui/src/assets/svgs/btn/refresh.svg

<svg height="24" viewBox="0 0 24 24" width="24" xmlns="http://www.w3.org/2000/svg"><g fill="none"><path d="m2 2h19.9804878v20h-19.9804878z" fill="#000" opacity="0" transform="matrix(0 1 1 0 -.009756 .009756)"/><path d="m11.992519 3.00942367c3.9153486-.00020541 7.3815327 2.53142729 8.572897 6.26147534 1.1913642 3.73004809-.1655161 7.80244439-3.3559659 10.07223889l-1.5311397-2.0661428c2.2868264-1.6008834 3.2791636-4.4948409 2.455969-7.162353-.8231947-2.66751216-3.273741-4.49879263-6.0649399-4.53229787-2.79119893-.03350524-5.28498956 1.73842396-6.17196664 4.38540739-.88697708 2.64698338.03562004 5.56392758 2.28336676 7.21924348l1.47714487-1.9221429 2.33463451 5.7445715h-6.74935644l1.37044076-1.7858572-.19283876-.1465714c-3.01045752-2.3737258-4.18679048-6.3941973-2.930685-10.01649701 1.25610547-3.62229971 4.66885702-6.05107442 8.50243944-6.05107442z" fill="#6b7b8d" transform="matrix(.25881905 .96592583 .96592583 -.25881905 -2.711401 3.533566)"/></g></svg>

<?xml version="1.0" encoding="UTF-8"?>
<svg width="24px" height="24px" viewBox="0 0 24 24" version="1.1" xmlns="http://www.w3.org/2000/svg" xmlns:xlink="http://www.w3.org/1999/xlink">
    <title>toolbar_icon_Refresh_default</title>
    <g id="页面-1" stroke="none" stroke-width="1" fill="none" fill-rule="evenodd">
        <g id="系统设计规范" transform="translate(-657.000000, -6044.000000)" fill-rule="nonzero">
            <g id="toolbar_icon_Refresh_default" transform="translate(657.000000, 6044.000000)">
                <polygon id="矩形" fill="#000000" opacity="0" transform="translate(11.990244, 12.000000) scale(-1, 1) rotate(-270.000000) translate(-11.990244, -12.000000) " points="2 2 21.9804878 2 21.9804878 22 2 22"></polygon>
                <path d="M11.992519,3.00942367 C15.9078676,3.00921826 19.3740517,5.54085096 20.565416,9.27089901 C21.7567802,13.0009471 20.3998999,17.0733434 17.2094501,19.3431379 L15.6783104,17.2769951 C17.9651368,15.6761117 18.957474,12.7821542 18.1342794,10.1146421 C17.3110847,7.44712994 14.8605384,5.61584947 12.0693395,5.58234423 C9.27814057,5.54883899 6.78434994,7.32076819 5.89737286,9.96775162 C5.01039578,12.614735 5.9329929,15.5316792 8.18073962,17.1869951 L9.65788449,15.2648522 L11.992519,21.0094237 L5.24316256,21.0094237 L6.61360332,19.2235665 L6.42076456,19.0769951 C3.41030704,16.7032693 2.23397408,12.6827978 3.49007956,9.06049809 C4.74618503,5.43819838 8.15893658,3.00942367 11.992519,3.00942367 Z" id="路径" fill="#6B7B8D" transform="translate(11.992769, 12.009424) scale(-1, 1) rotate(-255.000000) translate(-11.992769, -12.009424) "></path>
            </g>
        </g>
    </g>
</svg>
